casedrop/img/profile/icons/usd.svg

<svg width="9" height="13" viewBox="0 0 9 13" fill="none" xmlns="http://www.w3.org/2000/svg">
<path fill-rule="evenodd" clip-rule="evenodd" d="M3.95801 5.95833C2.51663 5.95833 1.79134 5.07596 1.79134 4.0625C1.79134 3.08263 2.4798 2.16667 3.95801 2.16667V5.95833ZM7.20801 8.9375C7.20801 9.91738 6.51955 10.8333 5.04134 10.8333V7.04167C6.48272 7.04167 7.20801 7.92404 7.20801 8.9375ZM8.29134 8.9375C8.29134 7.43817 7.19447 5.95833 5.04134 5.95833V2.16667H6.12467C6.72322 2.16667 7.20801 2.65146 7.20801 3.25H8.29134C8.29134 2.05346 7.32122 1.08333 6.12467 1.08333H5.04134V0H3.95801V1.08333C1.81409 1.08333 0.708008 2.55775 0.708008 4.0625C0.708008 5.56183 1.80488 7.04167 3.95801 7.04167V10.8333H2.87467C2.27613 10.8333 1.79134 10.3485 1.79134 9.75H0.708008C0.708008 10.9465 1.67813 11.9167 2.87467 11.9167H3.95801V13H5.04134V11.9167C7.18526 11.9167 8.29134 10.4423 8.29134 8.9375Z" fill="white"/>
</svg>

<svg width="9" height="13" fill="none" xmlns="http://www.w3.org/2000/svg"><path fill-rule="evenodd" clip-rule="evenodd" d="M3.958 5.958c-1.441 0-2.167-.882-2.167-1.896 0-.98.689-1.895 2.167-1.895v3.791zm3.25 2.98c0 .98-.688 1.895-2.167 1.895V7.042c1.442 0 2.167.882 2.167 1.896zm1.083 0c0-1.5-1.097-2.98-3.25-2.98V2.167h1.084c.598 0 1.083.484 1.083 1.083h1.083c0-1.197-.97-2.167-2.166-2.167H5.04V0H3.958v1.083c-2.144 0-3.25 1.475-3.25 2.98 0 1.499 1.097 2.979 3.25 2.979v3.791H2.875A1.083 1.083 0 011.79 9.75H.708c0 1.197.97 2.167 2.167 2.167h1.083V13h1.083v-1.083c2.144 0 3.25-1.475 3.25-2.98z" fill="#fff"/></svg>
